doc/articles/images/graph_system_boot.svg

<?xml version="1.0" encoding="UTF-8"?>
<svg color-interpolation="auto" color-rendering="auto" fill="black" font-family="'Dialog'" font-size="12px" image-rendering="auto" shape-rendering="auto" stroke="black" stroke-linecap="square" stroke-miterlimit="10" text-rendering="auto" version="1.1" viewBox="0 0 428 397" xmlns="http://www.w3.org/2000/svg" xmlns:cc="http://creativecommons.org/ns#" xmlns:dc="http://purl.org/dc/elements/1.1/" xmlns:rdf="http://www.w3.org/1999/02/22-rdf-syntax-ns#">
 <metadata>
  <rdf:RDF>
   <cc:Work rdf:about="">
    <dc:format>image/svg+xml</dc:format>
    <dc:type rdf:resource="http://purl.org/dc/dcmitype/StillImage"/>
    <dc:title/>
   </cc:Work>
  </rdf:RDF>
 </metadata>
 <!--Generated by ySVG 2.5-->
 <defs>
  <clipPath id="clipPath2">
   <path d="m117 21h428v397h-428v-397z"/>
  </clipPath>
 </defs>
 <g shape-rendering="geometricPrecision" text-rendering="geometricPrecision">
  <g transform="translate(-117 -21)" fill="#136e9e" stroke="#136e9e">
   <rect x="132" y="36" width="140" height="48" clip-path="url(#clipPath2)" stroke="none"/>
  </g>
  <g transform="translate(-117 -21)" fill="#fff" font-family="sans-serif" stroke-linecap="butt" stroke-miterlimit="1.45">
   <text x="157.6211" y="64.1543" clip-path="url(#clipPath2)" stroke="none" xml:space="preserve">hardware start</text>
   <rect x="132" y="36" width="140" height="48" clip-path="url(#clipPath2)" fill="none" stroke="#000"/>
  </g>
  <g transform="translate(-117 -21)" fill="#136e9e" stroke="#136e9e">
   <rect x="132" y="114" width="140" height="48" clip-path="url(#clipPath2)" stroke="none"/>
  </g>
  <g transform="translate(-117 -21)" fill="#fff" font-family="sans-serif" stroke-linecap="butt" stroke-miterlimit="1.45">
   <text x="172.9316" y="142.1543" clip-path="url(#clipPath2)" stroke="none" xml:space="preserve">iPXE start</text>
   <rect x="132" y="114" width="140" height="48" clip-path="url(#clipPath2)" fill="none" stroke="#000"/>
   <rect x="132" y="180" width="140" height="48" clip-path="url(#clipPath2)" stroke="none" stroke-linecap="square" stroke-miterlimit="10"/>
   <text x="146.7314" y="208.1543" clip-path="url(#clipPath2)" fill="black" stroke="none" xml:space="preserve">enable trust mode</text>
   <rect x="132" y="180" width="140" height="48" clip-path="url(#clipPath2)" fill="none" stroke="#3384b5"/>
   <rect x="132" y="235" width="140" height="48" clip-path="url(#clipPath2)" stroke="none" stroke-linecap="square" stroke-miterlimit="10"/>
   <text x="166.1465" y="263.1543" clip-path="url(#clipPath2)" fill="black" stroke="none" xml:space="preserve">fetch image</text>
   <rect x="132" y="235" width="140" height="48" clip-path="url(#clipPath2)" fill="none" stroke="#3384b5"/>
   <rect x="132" y="290" width="140" height="48" clip-path="url(#clipPath2)" stroke="none" stroke-linecap="square" stroke-miterlimit="10"/>
   <text x="154.6592" y="318.1543" clip-path="url(#clipPath2)" fill="black" stroke="none" xml:space="preserve">verify signature</text>
   <rect x="132" y="290" width="140" height="48" clip-path="url(#clipPath2)" fill="none" stroke="#3384b5"/>
  </g>
  <g transform="translate(-117 -21)" fill="#136e9e" stroke="#136e9e">
   <rect x="132" y="355" width="140" height="48" clip-path="url(#clipPath2)" stroke="none"/>
  </g>
  <g transform="translate(-117 -21)" fill="#fff" font-family="sans-serif" stroke-linecap="butt" stroke-miterlimit="1.45">
   <text x="146.0459" y="383.1543" clip-path="url(#clipPath2)" stroke="none" xml:space="preserve">Muen system start</text>
   <rect x="132" y="355" width="140" height="48" clip-path="url(#clipPath2)" fill="none" stroke="#000"/>
   <rect x="390" y="290" width="140" height="48" clip-path="url(#clipPath2)" stroke="none" stroke-linecap="square" stroke-miterlimit="10"/>
   <text x="439.3545" y="318.1543" clip-path="url(#clipPath2)" fill="black" stroke="none" xml:space="preserve">bailout</text>
   <rect x="390" y="290" width="140" height="48" clip-path="url(#clipPath2)" fill="none" stroke="#3384b5"/>
   <path d="m202 84v22" clip-path="url(#clipPath2)" fill="none" stroke="#000"/>
   <path d="m202 114 5-12-5 3-5-3z" clip-path="url(#clipPath2)" fill="#000" stroke="none"/>
   <path d="m202 162v10" clip-path="url(#clipPath2)" fill="none" stroke="#000"/>
   <path d="m202 180 5-12-5 3-5-3z" clip-path="url(#clipPath2)" fill="#000" stroke="none"/>
   <path d="m202 338v9" clip-path="url(#clipPath2)" fill="none" stroke="#000"/>
   <path d="m202 355 5-12-5 3-5-3z" clip-path="url(#clipPath2)" fill="#000" stroke="none"/>
   <path d="m272 314h110" clip-path="url(#clipPath2)" fill="none" stroke="#000"/>
   <path d="m390 314-12-5 3 5-3 5z" clip-path="url(#clipPath2)" fill="#000" stroke="none"/>
   <text x="280.8584" y="333.1543" clip-path="url(#clipPath2)" fill="red" stroke="none" xml:space="preserve">signature invalid</text>
  </g>
 </g>
</svg>

<?xml version="1.0" encoding="UTF-8"?><svg xmlns="http://www.w3.org/2000/svg" xmlns:xlink="http://www.w3.org/1999/xlink" fill-opacity="1" color-rendering="auto" color-interpolation="auto" text-rendering="auto" stroke="black" stroke-linecap="square" width="428" stroke-miterlimit="10" shape-rendering="auto" stroke-opacity="1" fill="black" stroke-dasharray="none" font-weight="normal" stroke-width="1" height="397" font-family="'Dialog'" font-style="normal" stroke-linejoin="miter" font-size="12px" stroke-dashoffset="0" image-rendering="auto">
  <!--Generated by ySVG 2.5-->
  <defs id="genericDefs"/>
  <g>
    <defs id="defs1">
      <clipPath clipPathUnits="userSpaceOnUse" id="clipPath1">
        <path d="M0 0 L428 0 L428 397 L0 397 L0 0 Z"/>
      </clipPath>
      <clipPath clipPathUnits="userSpaceOnUse" id="clipPath2">
        <path d="M117 21 L545 21 L545 418 L117 418 L117 21 Z"/>
      </clipPath>
    </defs>
    <g fill="rgb(19,110,158)" text-rendering="geometricPrecision" shape-rendering="geometricPrecision" transform="matrix(1,0,0,1,-117,-21)" stroke="rgb(19,110,158)">
      <rect x="132" width="140" height="48" y="36" clip-path="url(#clipPath2)" stroke="none"/>
    </g>
    <g stroke-linecap="butt" transform="matrix(1,0,0,1,-117,-21)" fill="white" text-rendering="geometricPrecision" font-family="sans-serif" shape-rendering="geometricPrecision" stroke="white" stroke-miterlimit="1.45">
      <text x="157.6211" xml:space="preserve" y="64.1543" clip-path="url(#clipPath2)" stroke="none">hardware start</text>
      <rect x="132" y="36" clip-path="url(#clipPath2)" fill="none" width="140" height="48" stroke="black"/>
    </g>
    <g fill="rgb(19,110,158)" text-rendering="geometricPrecision" shape-rendering="geometricPrecision" transform="matrix(1,0,0,1,-117,-21)" stroke="rgb(19,110,158)">
      <rect x="132" width="140" height="48" y="114" clip-path="url(#clipPath2)" stroke="none"/>
    </g>
    <g stroke-linecap="butt" transform="matrix(1,0,0,1,-117,-21)" fill="white" text-rendering="geometricPrecision" font-family="sans-serif" shape-rendering="geometricPrecision" stroke="white" stroke-miterlimit="1.45">
      <text x="172.9316" xml:space="preserve" y="142.1543" clip-path="url(#clipPath2)" stroke="none">iPXE start</text>
      <rect x="132" y="114" clip-path="url(#clipPath2)" fill="none" width="140" height="48" stroke="black"/>
      <rect stroke-linecap="square" x="132" y="180" clip-path="url(#clipPath2)" width="140" height="48" stroke="none" stroke-miterlimit="10"/>
      <text fill="black" x="146.7314" xml:space="preserve" y="208.1543" clip-path="url(#clipPath2)" stroke="none">enable trust mode</text>
      <rect x="132" y="180" clip-path="url(#clipPath2)" fill="none" width="140" height="48" stroke="rgb(51,132,181)"/>
      <rect stroke-linecap="square" x="132" y="235" clip-path="url(#clipPath2)" width="140" height="48" stroke="none" stroke-miterlimit="10"/>
      <text fill="black" x="166.1465" xml:space="preserve" y="263.1543" clip-path="url(#clipPath2)" stroke="none">fetch image</text>
      <rect x="132" y="235" clip-path="url(#clipPath2)" fill="none" width="140" height="48" stroke="rgb(51,132,181)"/>
      <rect stroke-linecap="square" x="132" y="290" clip-path="url(#clipPath2)" width="140" height="48" stroke="none" stroke-miterlimit="10"/>
      <text fill="black" x="154.6592" xml:space="preserve" y="318.1543" clip-path="url(#clipPath2)" stroke="none">verify signature</text>
      <rect x="132" y="290" clip-path="url(#clipPath2)" fill="none" width="140" height="48" stroke="rgb(51,132,181)"/>
    </g>
    <g fill="rgb(19,110,158)" text-rendering="geometricPrecision" shape-rendering="geometricPrecision" transform="matrix(1,0,0,1,-117,-21)" stroke="rgb(19,110,158)">
      <rect x="132" width="140" height="48" y="355" clip-path="url(#clipPath2)" stroke="none"/>
    </g>
    <g stroke-linecap="butt" transform="matrix(1,0,0,1,-117,-21)" fill="white" text-rendering="geometricPrecision" font-family="sans-serif" shape-rendering="geometricPrecision" stroke="white" stroke-miterlimit="1.45">
      <text x="146.0459" xml:space="preserve" y="383.1543" clip-path="url(#clipPath2)" stroke="none">Muen system start</text>
      <rect x="132" y="355" clip-path="url(#clipPath2)" fill="none" width="140" height="48" stroke="black"/>
      <rect stroke-linecap="square" x="390" y="290" clip-path="url(#clipPath2)" width="140" height="48" stroke="none" stroke-miterlimit="10"/>
      <text fill="black" x="439.3545" xml:space="preserve" y="318.1543" clip-path="url(#clipPath2)" stroke="none">bailout</text>
      <rect x="390" y="290" clip-path="url(#clipPath2)" fill="none" width="140" height="48" stroke="rgb(51,132,181)"/>
      <path fill="none" d="M202 84 L202 106" clip-path="url(#clipPath2)" stroke="black"/>
      <path fill="black" d="M202 114 L207 102 L202 105 L197 102 Z" clip-path="url(#clipPath2)" stroke="none"/>
      <path fill="none" d="M202 162 L202 172" clip-path="url(#clipPath2)" stroke="black"/>
      <path fill="black" d="M202 180 L207 168 L202 171 L197 168 Z" clip-path="url(#clipPath2)" stroke="none"/>
      <path fill="none" d="M202 338 L202 347" clip-path="url(#clipPath2)" stroke="black"/>
      <path fill="black" d="M202 355 L207 343 L202 346 L197 343 Z" clip-path="url(#clipPath2)" stroke="none"/>
      <path fill="none" d="M272 314 L382 314" clip-path="url(#clipPath2)" stroke="black"/>
      <path fill="black" d="M390 314 L378 309 L381 314 L378 319 Z" clip-path="url(#clipPath2)" stroke="none"/>
      <text fill="red" x="280.8584" xml:space="preserve" y="333.1543" clip-path="url(#clipPath2)" stroke="none">signature invalid</text>
    </g>
  </g>
</svg>
